X:1
T:BACH_CHRISTMAS_ORATORIO_12_B03
T:BACH_CHRISTMAS_ORATORIO_12_B03
%%score [ 1 2 3 4 ]
L:1/8
M:4/4
K:G
V:1 treble nm="Soprano"
V:2 treble nm="Alto"
V:3 treble-8 nm="Tenor"
V:4 bass nm="Bass"
V:1
"^Editor:  John Henry Fowler""^( Revision:  11 - 6 - 2008 )" G2 | %1
w: Brich|
 G2 A2"^Christmas Oratorio""^Cantata No 2 - No 12 - Choral" (B^c) d2 | d2 ^c2 d2 B2 | %3
w: an, o Schö- * nes|Mor- gen- licht, und|
 c2 B2"^Johann Sebastian Bach" A2"^( 1685 - 1750 )" B2 |[M:3/4] A4 G2 |[M:4/4] G2 | %6
w: lass den Him- mel|ta- gen~!|Du|
[M:4/4] G2 A2 (B^c) d2 | d2 ^c2 d2 B2 | c2 B2 A2 B2 |[M:3/4] A4 G2 ||[M:4/4] A2 | A2 B2 c2 c2 | %12
w: Hir- ten volk, _ er-|schre- cken nicht, weil|dir die En- gel|sa- gen:|dass|die- ses schwa- che|
 (BA) B2 A2 B2 | B2 B2 (cd) e2 | e2 ^d2 e2 f2 | g2 B2 c2 B2 | A4 A2 d2 | e2 d2 c2 (Bc) | %18
w: Knä- * be- lein soll|un- ser Trost _ und|Freu- de sein. da|zu den Sa- ten|zwin- gen und|letzt- lich Frie- den _|
[M:3/4] A4 G2 |] %19
w: brin- gen.|
V:2
 D2 | E2 F2 (DE) F2 | (EF) G2 F2 F2 | E2 (DE) F2 G2 |[M:3/4] (G2 F2) D2 |[M:4/4] D2 | %6
w: Brich|an, o Schö- * nes|Mor- * gen- licht, und|lass den _ Him- mel|ta- * gen~!|Du|
[M:4/4] E2 F2 (DE) F2 | (EF) G2 F2 F2 | E2 (DE) F2 G2 |[M:3/4] (G2 F2) D2 ||[M:4/4] (FG) | %11
w: Hir- ten volk, _ er-|schre- * cken nicht, weil|dir die _ En- gel|sa- * gen:|dass _|
 A3 ^G (AG) A2 | A2 ^G2 E2 (E^D) | E2 E2 (EF)(GF) | (FG) A2 G2 A2 | (GA) B2 (BA)(AG) | G4 F2 (GF) | %17
w: die- ses schwa- * che|Knä- be- lein soll _|un- ser Trost _ und _|Freu- * de sein. da|zu _ den Sa- * ten *|zwin- gen und _|
 E2 F2 (GA) D2 |[M:3/4] (E2 D2) D2 |] %19
w: letzt- lich Frie- * den|brin- * gen.|
V:3
 B,2 | (B, C2) D (B,A,) A,2 | A,2 A,2 A,2 (B,A,) | (G,A,)(B,C) D2 D2 |[M:3/4] (D3 C) B,2 | %5
w: Brich|an, _ o Schö- * nes|Mor- gen- licht, und _|lass _ den _ Him- mel|ta- * gen~!|
[M:4/4] B,2 |[M:4/4] (B,CC)D (B,A,) A,2 | A,2 A,2 A,2 (B,A,) | (G,A,)(B,C) D2 D2 | %9
w: Du|Hir- * * ten volk, _ er-|schre- cken nicht, weil _|dir _ die _ En- gel|
[M:3/4] (D3 C) B,2 ||[M:4/4] (DE) | (FE) D2 E2 F2 | B,2 (ED) C2 G,A, | (B,C)(DE) C2 ^C2 | %14
w: sa- * gen:|dass _|die- * ses schwa- che|Knä- be- * lein soll _|un- * ser _ Trost und|
 B,2 B,2 B,2 D2 | D2 G2 (G,A,) B,2 | (EDE^C) D2 D2 | (DC)(CB,) (B,A,) G,2 | %18
w: Freu- de sein. da|zu den Sa- * ten|zwin- * * * gen und|letzt- * lich _ Frie- * den|
[M:3/4] (G,F,/E,/ F,2) B,2 |] %19
w: brin- * * * gen.|
V:4
 (G,F,) | E,2 D,2 G,2 (F,G,) | A,2 A,,2 D,2 ^D,2 | (E,F,)(G,C,) (CB,)(A,G,) |[M:3/4] (D2 D,2) G,2 | %5
w: Brich _|an, o Schö- nes _|Mor- gen- licht, und|lass _ den _ Him- * * mel|ta- * gen~!|
[M:4/4] (G,F,) |[M:4/4] E,2 D,2 G,2 (F,G,) | A,2 A,,2 D,2 ^D,2 | (E,F,)(G,C,) (CB,)(A,G,) | %9
w: Du _|Hir- ten volk, er- *|schre- cken nicht, weil|dir _ die _ En _ gel _|
[M:3/4] (D2 D,2) G,2 ||[M:4/4] D,2 | (DC) B,2 A,2 ^D,2 | E,2 E,2 A,,2 (E,F,) | G,2 ^G,2 A,2 _B,2 | %14
w: sa- * gen:|dass|die- * ses schwa- che|Knä- be- lein soll _|un- ser Trost und|
 B,2 B,,2 E,2 (DC) | (B,A,)(G,F,) (E,F,)(G,E,) | (^C,B,,C,A,,) D,2 B,,2 | C,2 D,2 (E,F,) G,2 | %18
w: Freu- de sein. da _|zu _ den _ Sa- * ten *|zwin- * * * gen und|letzt- lich Frie- * den|
[M:3/4] (C,2 D,2) G,,2 |] %19
w: brin- * gen.|

